X:1
T:This Is Berk
T:This Is Berk
T:John Powell
C:John Powell
%%score { 1 | 2 }
L:1/8
Q:1/4=180
M:12/8
K:D
V:1 treble nm="Grand Piano" snm="Pno."
V:2 bass 
V:1
 !wedge![Aea] !wedge![Bfb]2 !^![FBdfb] z [Ff] [Aa][cc'][Bb] !tenuto![FBdfb] z [Ff] | %1
 [Aa]>[Bb][c^gc'] !wedge!!^![Bfb][Aea][Fcf] [EBe]2 [Ff]/4[Ee]/4[^D^d]/ [Ee][Ff][Aea] | %2
 [Aea] [Bfb]2 [FBdfb] z [Ff] [Aa][Bb][dad'] !wedge![Bdfb] z [Ff] | %3
 [Bb]2 [Aa] [Ff][Ff][Ee] [B,B][B,B][A,A] [B,B]2 [^FB^f] | %4
 !wedge![Aea] !wedge![Bfb]2 !^![FBdfb] z [Ff] [Aa][cc'][Bb] !tenuto![FBdfb] z [Ff] | %5
 [Aa]>[Bb][c^gc'] !wedge!!^![Bfb][Aea][Fcf] [EBe]2 [Ff]/4[Ee]/4[^D^d]/ [Ee][Ff][Aea] | %6
 [Aea] [Bfb]2 [FBdfb] z [Ff] [Aa][Bb][dad'] !wedge![Bdfb] z [Ff] | %7
 [Bb]2 [Aa] [Ff][Ff][Ee] [B,B][B,B][A,A] [B,B]2 z | z12 | z12 | z12 | z12 | z12 | z12 | z12 | z12 | %16
 z12 | z12 | z12 | z12 | z12 | z12 | z12 | z12 | z12 | z12 | z12 | z12 | z12 | z12 | z12 | z12 |] %32
V:2
 !tenuto![B,,,F,,B,,]2 [B,,,F,,B,,] !wedge![F,,B,,B,DFB]!wedge![F,B,F]/!wedge![F,B,F]/!wedge![F,B,F] !tenuto![B,,,F,,B,,]2 [B,,,F,,B,,] !wedge![F,,B,,F,B,DFB][F,B,F]/!wedge![F,B,F]/!wedge![F,B,F] | %1
 !tenuto![F,,C,F,]2 [F,,F,] [F,,F,][F,,F,]/[F,,F,]/[F,,F,]/ z/ !tenuto![B,,,F,,B,,]3 [D,,D,][C,,C,][A,,,A,,] | %2
 [B,,,F,,B,,]2 [B,,,F,,B,,] !wedge![F,,B,,B,DFB]!wedge![FBf]/!wedge![FBf]/!wedge![FBf] [B,,,F,,B,,]2 [D,,A,,D,] !wedge![F,,B,,F,B,DFB]!wedge![D,,F,,F,F]!wedge![B,,,F,,F,F] | %3
 B,,B,,/B,,/B,,/ z/ F,,F,,/F,,/F,,/ z/ B,,,B,,,/B,,,/B,,,/ z/ B,,,2 z | %4
 !tenuto![B,,,F,,B,,]2 [B,,,F,,B,,] !wedge![F,,B,,B,DFB]!wedge![F,B,F]/!wedge![F,B,F]/!wedge![F,B,F] !tenuto![B,,,F,,B,,]2 [B,,,F,,B,,] !wedge![F,,B,,F,B,DFB][F,B,F]/!wedge![F,B,F]/!wedge![F,B,F] | %5
 [F,,C,F,]3 [F,,F,][F,,F,]/[F,,F,]/[F,,F,]/[F,,F,]/ [B,,,B,,]3 [F,,F,][E,,E,][B,,,B,,] | %6
 [B,,,F,,B,,]2 [D,,A,,D,] !wedge![D,,A,,B,DFB]!wedge![FBf]/!wedge![FBf]/!wedge![FBf] [B,,,F,,B,,]2 [D,,A,,D,] !wedge![F,,B,,F,B,DFB]!wedge![D,,F,,F,F]!wedge![B,,,F,,F,F] | %7
 B,,B,,/B,,/B,,/ z/ F,,F,,/F,,/F,,/ z/ B,,,B,,,/B,,,/B,,,/ z/ B,,,2 z | z12 | z12 | z12 | z12 | %12
 z12 | z12 | z12 | z12 | z12 | z12 | z12 | z12 | z12 | z12 | z12 | z12 | z12 | z12 | z12 | z12 | %28
 z12 | z12 | z12 | z12 |] %32

